X: 52
T: Piano Sonata No. 12 in F major, K 332 (300k), mvmt. 1
C: Wolfgang Amadeus Mozart
%%abc-version 2.0
%%abcx-abcm2ps-target-version 5.9.1 (29 Sep 2008)
%%abc-creator hum2abc beta
%%abcx-conversion-date 2021/01/14 17:01:32
%%abc-copyright 2018 Craig Stuart Sapp
%%abc-edited-by Craig Stuart Sapp
%%abc-edited-by Craig Stuart Sapp
%%abcx-initial-encoding-date 2009/10/12
%%gracespace 0 6 6
%%humdrum-veritas 2583853332
%%humdrum-veritas-data 1421371662
%%linebreak <none>
%%barnumbers 0
L: 1/8
M: 3/4
N: Derived from sonata12-1.krn
Q: "Allegro" 1/4=144
%%staves {1 2}
V: 1 clef=treble
V: 2 clef=bass
K: F
[V:1] F4A2 | 
[V:2] F,A,CA,CA, | 
[V:1] c4A2 | 
[V:2] F,C_ECEC | 
[V:1] B4g2 | 
[V:2] F,B,DB,DB, | 
[V:1] fee2z2 | 
[V:2] F,G,B,G,B,G, | 
[V:1] f2A2d2 | 
[V:2] [F,2A,2]z2z2 | 
[V:1] G2c3A | 
[V:2] z6 | 
[V:1] F6 | 
[V:2] F,2A,,2D,2 | 
[V:1] G6 & F2!mordent!EDE2 | 
[V:2] G,,2C,3A,, | 
[V:1] A2B2d2 & F6- | 
[V:2] F,,2D,2B,,2 | 
[V:1] dcBAGF & F2z2z2 | 
[V:2] A,,2z2D,2 | 
[V:1] G2B2[B,2E2] | 
[V:2] B,,2z2C,2 | 
[V:1] [A,2F2]z2c'3/b/ | 
[V:2] F,,2z2[K:clef=treble][A3/c3/][G/B/] | 
[V:1] a2a2a3/g/ | 
[V:2] [F2A2][F2A2][F3/A3/][C/G/] | 
[V:1] f2f2f2 | 
[V:2] [A,2F2][A,2F2][A,2F2] | 
[V:1] [e2g2].[e2g2].[e2g2] | 
[V:2] [C2G2].[C2G2].[C2G2] | 
[V:1] [e2g2][f2a2]c'/d'/c'/b/ | 
[V:2] [C2G2][F2A2][A3/c3/][G/B/] | 
[V:1] a2a2a/b/a/g/ | 
[V:2] [F2A2][F2A2][F3/A3/][C/G/] | 
[V:1] f2f2f2 | 
[V:2] [A,2F2][A,2F2][A,2F2] | 
[V:1] g2b2[B2e2] | 
[V:2] [C2G2]z2[C2G2] | 
[V:1] [A2f2]z2c'2 | 
[V:2] F2z2[C2E2B2] | 
[V:1] f2z2c2 | 
[V:2] [F2A2]z2[K:clef=bass][C,2E,2B,2] | 
[V:1] F2z2^C2 | 
[V:2] [F,2A,2]z2[^C,,2^C,2] | 
[V:1] D3F/A/ dA/d/ | 
[V:2] [D,,D,] F,A,F,A,F, | 
[V:1] fd/f/ .aafd | 
[V:2] D,F,A,F,A,F, | 
[V:1] {/^c/e/g/}b3a/g/ f/e/d/c/ | 
[V:2] [E,,2E,2][E,2G,2B,2^C2]z2 | 
[V:1] b3a/g/ f/e/d/^c/ | 
[V:2] [E,,2E,2][E,2G,2B,2^C2]z2 | 
[V:1] d3F/A/ dA/d/ | 
[V:2] F,A,DA,DA, | 
[V:1] fd/f/ .aafd | 
[V:2] F,A,DA,DA, | 
[V:1] [=B3d3f3_a3]g/f/ _e/d/c/B/ | 
[V:2] [D,,2D,2][D,2F,2_A,2=B,2]z2 | 
[V:1] _a3g/f/ _e/d/c/=B/ | 
[V:2] [D,,2D,2][D,2F,2_A,2=B,2]z2 | 
[V:1] c2-c/G/c/G/ _e/c/e/c/ | 
[V:2] _E,G,CG,CG, | 
[V:1] g/_e/g/e/c'2z2 | 
[V:2] _E,G,CG,CG, | 
[V:1] c2-c/_A/c/A/ _e/c/e/c/ | 
[V:2] C,_E,_A,E,A,E, | 
[V:1] _a/_e/a/e/c'2z2 | 
[V:2] C,_E,_A,E,A,E, | 
[V:1] c2-c/^F/c/F/ _e/c/e/c/ | 
[V:2] _A,,C,_E,C,E,C, | 
[V:1] ^f/_e/f/e/c'2f2 | 
[V:2] _A,,C,_E,C,E,C, | 
[V:1] {/G/=B/d/}g4=f/_e/d/c/ | 
[V:2] G,,=B,,D,G,C,_E, | 
[V:1] g4f/_e/d/c/ | 
[V:2] G,,=B,,D,G,C,_E, | 
[V:1] g3_a/g/ f/_e/d/c/ | 
[V:2] [G,,3G,3]_A,/G,/ F,/_E,/D,/C,/ | 
[V:1] .g2.G2z2 | 
[V:2] .G,2.G,,2z2 | 
[V:1] {/G//} =e z e z e z | 
[V:2] {/C,//G,//}C2z2z2 | 
[V:1] {/=B//}g2>f2d2 | 
[V:2] {/G,//D//}F2z2z2 | 
[V:1] dcx4 & E2[G3c3][=Bd] | 
[V:2] C,2E,2G,2 | 
[V:1] d4e2 & =B4c2 | 
[V:2] C2C,2z2 | 
[V:1] f2>{/g/f/e/} f2ga | 
[V:2] A,2[C2F2]z2 | 
[V:1] ag^fg=fd | 
[V:2] =B,2[D2G2]z2 | 
[V:1] ^defegf | 
[V:2] C2[A,2C2][F,2=D2] | 
[V:1] e=dc=BAG | 
[V:2] [G,2=B,2]z2z2[K:clef=treble] | 
[V:1] ^dedede | 
[V:2] (3CEG (3CEG (3CEG | 
[V:1] ^fgfg=f=d | 
[V:2] (3=B,DG (3B,DG (3B,FG | 
[V:1] x2dc ed & dcG2=B2 | 
[V:2] [C2E2][K:clef=bass]E,2G,2 | 
[V:1] d2>^d2e2 & =B4c2 | 
[V:2] C2G,2C,2[K:clef=treble] | 
[V:1] f2>{/g/f/e/} f2ga | 
[V:2] A,CFCA,C | 
[V:1] ag^fg=fd | 
[V:2] =B,DGDB,D | 
[V:1] ^degf=d=B | 
[V:2] C2[K:clef=bass][F,2=D2][G,2F2] | 
[V:1] cG z G z G | 
[V:2] [C2E2]E2C2 | 
[V:1] [FG][FG] z [FG] z [FG] | 
[V:2] D2=B,2G,2 | 
[V:1] [_EG][EG] z [EG] z [EG] | 
[V:2] C,2_E,2C,2 | 
[V:1] [FG][FG] z [FG] z [FG] | 
[V:2] D,2=B,,2G,,2 | 
[V:1] [_EG][EG] z [EG] z [EG] | 
[V:2] [C,,2C,2]_E,2G,2 | 
[V:1] [_E_A][EA] z [EA] z [EA] | 
[V:2] [F,,2F,2]_A,2C2 | 
[V:1] [D_A][DA] z [DA] z [DA] | 
[V:2] [_B,,,2_B,,2]D,2F,2 | 
[V:1] [DG][DG] z [DG] z [DG] | 
[V:2] [_E,,2_E,2]G,2B,2 | 
[V:1] [CG][CG] z [CG] [CF][CF] | 
[V:2] [_A,,,2_A,,2]_A,2[D,,2D,2] | 
[V:1] z [CF] [=B,F][B,F] z [B,F] | 
[V:2] D2[G,,,2G,,2]G,2 | 
[V:1] z [C_E] z [CE] z [CE] | 
[V:2] _A,2G,2^F,2 | 
[V:1] [=B,D][_EG][DF][CE][B,D][CE] | 
[V:2] G,2z2z ^F, | 
[V:1] [=B,D][_EG][DF][CE][B,D][CE] | 
[V:2] G,2z2z ^F, | 
[V:1] [=B,D][C_E][B,D][CE][B,D][CE] | 
[V:2] G,^F,G,F,G,F, | 
[V:1] [=B,D][^A,^C][B,D][C=E][D=F][EG] | 
[V:2] G,2z2z2 | 
[V:1] [F2A2][=C2F2A2][C2F2A2] | 
[V:2] =F,2F,2F,2 | 
[V:1] [F4A4][E2G2] & C6 | 
[V:2] F,4C,2 | 
[V:1] G<F[D2F2][D2F2] & [=B,2D2]B,2B,2 | 
[V:2] G,,2G,,2G,,2 | 
[V:1] [=B,4D4F4][C2E2] | 
[V:2] G,,4A,,2 | 
[V:1] [EG][DF][C2E2][=B,2D2] | 
[V:2] F,,2G,,2G,,2 | 
[V:1] [CE] .c.d.e.f.g | 
[V:2] C,2z2z2 | 
[V:1] a2a2a2 | 
[V:2] [C2F2][C2F2][C2F2] | 
[V:1] a3=b/a/g2 | 
[V:2] F4E2 & C6 | 
[V:1] g<ff2f2 & =B2B2B2 | 
[V:2] D2D2D2 & G,2G,2G,2 | 
[V:1] f4e2 & =B4c2 | 
[V:2] D4C2 & G,4A,2 | 
[V:1] [eg][df][c2e2][=B2d2] | 
[V:2] F,2G,2F,2 | 
[V:1] [eg][eg] z [df] z [ce] | 
[V:2] [E,,E,] z ^G, z A, z | 
[V:1] z [Fd] z [Ec] z [D=B] | 
[V:2] F, z =G, z F, z | 
[V:1] z/ e/g/e/ z/ d/f/d/ z/ c/e/c/ | 
[V:2] [E,,2E,2][^G,,2^G,2][A,,2A,2] | 
[V:1] z/ F/d/F/ z/ E/c/E/ z/ D/=B/D/ | 
[V:2] [F,,2F,2][=G,,2=G,2][G,,2G,2] | 
[V:1] [E2G2c2]z2!trill!e3/d//c// | 
[V:2] C,/E,/G,/C/ C,/E,/G,/C/ C,/E,/G,/C/ | 
[V:1] g4!trill!=b3/a//g// | 
[V:2] C,/E,/G,/C/ C,/E,/G,/C/ C,/F,/G,/C/ | 
[V:1] c'4!trill!e3/d//c// | 
[V:2] C,/E,/G,/C/ C,/E,/G,/C/ C,/E,/G,/C/ | 
[V:1] g2g2!trill!=b3/a//g// | 
[V:2] C,/E,/G,/C/ C,/E,/G,/C/ C,/F,/G,/C/ | 
[V:1] c'2e'3^g | 
[V:2] [C,2E,2G,2C2][E,3E3][^G,,^G,] | 
[V:1] a2c'3e | 
[V:2] [A,,2A,2][C,3C3]E, | 
[V:1] !trill!f3/e//d//=g2[d2f2g2=b2] | 
[V:2] !trill!F,3/E,//D,//=G,2[G,,2G,2] | 
[V:1] [e2g2c'2]C2z2 :|]|:  
[V:2] [C,2C2][C,,2C,2]z2 :|]|:  
[V:1] G2c2e2 & G6 | 
[V:2] z2E,2C,2 | 
[V:1] [c4e4][=B2d2] & G6 | 
[V:2] G,6 | 
[V:1] g2c2e2 & z2G4 | 
[V:2] z2E,2C,2 | 
[V:1] [c4e4][=B2d2] & G6 | 
[V:2] G,6 | 
[V:1] A2d2f2 | 
[V:2] [F,2A,2D2]z2z2 | 
[V:1] e2d2a2- | 
[V:2] [F,2A,2D2]z2z2 | 
[V:1] a2g2=B2 | 
[V:2] [G,6D6F6] | 
[V:1] cGEGFD | 
[V:2] [C2E2]z2z2 | 
[V:1] C>G,C2E2 | 
[V:2] z2E,2C,2 | 
[V:1] [C4E4][=B,2D2] | 
[V:2] [G,,6G,6] | 
[V:1] G2C2E2 & z2G,4 | 
[V:2] z2E,2C,2 | 
[V:1] [C4E4][=B,2D2] | 
[V:2] [G,,6G,6] | 
[V:1] A,2D2F2 | 
[V:2] [F,,2A,,2D,2]z2z2 | 
[V:1] E2D2A2- | 
[V:2] [F,,2A,,2D,2]z2z2 | 
[V:1] A2G2=B,2 | 
[V:2] [G,,2D,2F,2]z2z2 | 
[V:1] CG z G z G | 
[V:2] [C,2E,2]E2C2 | 
[V:1] [FG][FG] z [FG] z [FG] | 
[V:2] D2=B,2G,2 | 
[V:1] [_EG][EG] z [EG] z [EG] | 
[V:2] C,2_E,2C,2 | 
[V:1] [FG][FG] z [FG] z [FG] | 
[V:2] D,2=B,,2G,,2 | 
[V:1] [_EG][EG] z [EG] z [EG] | 
[V:2] [C,,2C,2]C2C,2 | 
[V:1] [C_E^F][CEF] z [CEF] z [CEF] | 
[V:2] [A,,,2A,,2]A,2A,,2 | 
[V:1] [DG][DG] z [DG] z [DG] | 
[V:2] [_B,,,2_B,,2]B,2B,,2 | 
[V:1] [DAc][DAc] z [DAc] z [DAc] | 
[V:2] [^F,,,2^F,,2]^F,2F,,2 | 
[V:1] [DG_B][DGB] z [DGB] z [DGB] | 
[V:2] [G,,,2G,,2]G,2G,,2 | 
[V:1] [GB^c][GBc] z [GBc] z [GBc] | 
[V:2] [=E,,2=E,2]E2E,2 | 
[V:1] [Ad][Ad] z [Ad] z [Ad] | 
[V:2] [=F,,2=F,2]F2F,2 | 
[V:1] [Aeg][Aeg] z [Aeg] z [Aeg] | 
[V:2] [^C,,2^C,2]^C2C,2 | 
[V:1] [Adf][Adf] z [Adf] z [Adf] | 
[V:2] [D,,2D,2]D2D,2 | 
[V:1] [d^g][dg] z [dg] z [dg] | 
[V:2] [B,,,2B,,2]B,2B,,2 | 
[V:1] [^ca] [fa][e=g][df][ce][df] | 
[V:2] A,,2z2[K:clef=treble]z ^G | 
[V:1] [^ce] [FA][EG][DF][^CE][DF] | 
[V:2] A2z2[K:clef=bass]z ^G, | 
[V:1] [^CE][DF][CE][DF][CE][DF] | 
[V:2] A,^G,A,G,A,G, | 
[V:1] [^C2E2]z2z2 | 
[V:2] A,2z2z2 | 
[V:1] [=CE][DF][CE][DF][CE][DF] | 
[V:2] A,^G,A,G,A,G, | 
[V:1] [C2E2]z2z2 | 
[V:2] A,2z2z2 | 
[V:1] EFEFEF & C6- | 
[V:2] _B,6- & =G,A,G,A,G,A, | 
[V:1] E2z2z2 & C2x4 | 
[V:2] B,2x4[K:clef=treble] & G,2z2z2 | 
[V:1] bababa & e6- | 
[V:2] G^FGFGF & C6- | 
[V:1] b2x4 & e2z2z2 | 
[V:2] G2z2z2[K:clef=bass] & C2x4 | 
[V:1] F4A2 | 
[V:2] F,A,CA,CA, | 
[V:1] c4A2 | 
[V:2] F,C_ECEC | 
[V:1] B4g2 | 
[V:2] F,B,DB,DB, | 
[V:1] fee2z2 | 
[V:2] F,G,B,G,B,G, | 
[V:1] f2A2d2 | 
[V:2] [F,2A,2]z2z2 | 
[V:1] G2c3A | 
[V:2] z6 | 
[V:1] F6- | 
[V:2] F,2A,,2D,2 | 
[V:1] G6 & F2!mordent!EDE2 | 
[V:2] G,,2C,3A,, | 
[V:1] A2B2d2 & F6- | 
[V:2] F,,2D,2B,,2 | 
[V:1] dcBAGF & F2z2z2 | 
[V:2] A,,2z2D,2 | 
[V:1] G2B2[B,2E2] | 
[V:2] B,,2z2C,2 | 
[V:1] [A,2F2]z2c'3/b/ | 
[V:2] F,,2z2[K:clef=treble][A3/c3/][G/B/] | 
[V:1] a2a2a3/g/ | 
[V:2] [F2A2][F2A2][F3/A3/][C/G/] | 
[V:1] f2f2f2 | 
[V:2] [A,2F2][A,2F2][A,2F2] | 
[V:1] [e2g2].[e2g2].[e2g2] | 
[V:2] [C2G2].[C2G2].[C2G2] | 
[V:1] [e2g2][f2a2]c'/d'/c'/b/ | 
[V:2] [C2G2][F2A2][A3/c3/][G/B/] | 
[V:1] a2a2a/b/a/g/ | 
[V:2] [F2A2][F2A2][F3/A3/][C/G/] | 
[V:1] f2f2f2 | 
[V:2] [A,2F2][A,2F2][A,2F2] | 
[V:1] g2b2[B2e2] | 
[V:2] [C2G2]z2[C2G2] | 
[V:1] [A2f2]z2c'2 | 
[V:2] F2z2[C2E2B2] | 
[V:1] f2z2c2 | 
[V:2] [F2A2]z2[K:clef=bass][C,2E,2B,2] | 
[V:1] F2z2^C2 | 
[V:2] [F,2A,2]z2[^C,,2^C,2] | 
[V:1] D3F/A/ dA/d/ | 
[V:2] [D,,D,] F,A,F,A,F, | 
[V:1] fd/f/ .aafd | 
[V:2] D,F,A,F,A,F, | 
[V:1] {/^c/e/g/}b3a/g/ f/e/d/c/ | 
[V:2] [E,,2E,2][E,2G,2B,2^C2]z2 | 
[V:1] b3a/g/ f/e/d/^c/ | 
[V:2] [E,,2E,2][E,2G,2B,2^C2]z2 | 
[V:1] d3F/A/ dA/d/ | 
[V:2] F,A,DA,DA, | 
[V:1] fd/f/ .aafd | 
[V:2] F,A,DA,DA, | 
[V:1] [=B3d3f3_a3]g/f/ _e/d/c/B/ | 
[V:2] [D,,2D,2][D,2F,2_A,2=B,2]z2 | 
[V:1] _a3g/f/ _e/d/c/=B/ | 
[V:2] [D,,2D,2][D,2F,2_A,2=B,2]z2 | 
[V:1] c3_E/G/ cG/c/ | 
[V:2] _E,G,CG,CG, | 
[V:1] _ec/e/ .ggec | 
[V:2] _E,G,CG,CG, | 
[V:1] [=A3c3_e3_g3]f/e/ _d/c/B/A/ | 
[V:2] _E,,2[_E,2_G,2=A,2C2]z2 | 
[V:1] _g3f/_e/ _d/c/B/A/ | 
[V:2] _E,,2[_E,2_G,2A,2C2]z2 | 
[V:1] B2-B/F/B/F/ _d/B/d/B/ | 
[V:2] _D,F,B,F,B,F, | 
[V:1] f/_d/f/d/b2z2 | 
[V:2] _D,F,B,F,B,F, | 
[V:1] =A2-A/F/A/F/ c/A/c/A/ | 
[V:2] C,F,=A,F,A,F, | 
[V:1] f/c/f/c/a2z2 | 
[V:2] C,F,A,F,A,F, | 
[V:1] _A2-A/F/A/F/ =d/A/d/A/ | 
[V:2] =B,,F,_A,F,A,F, | 
[V:1] f/d/f/d/_a2f2 | 
[V:2] =B,,F,_A,F,A,F, | 
[V:1] {/c/=e/g/}c'4_b/_a/g/f/ | 
[V:2] C,=E,G,CF,_A, | 
[V:1] c'4b/_a/g/f/ | 
[V:2] C,E,G,CF,_A, | 
[V:1] c3_d/c/ B/_A/G/F/ | 
[V:2] C3_D/C/ B,/_A,/G,/F,/ | 
[V:1] .c2.C2z2 | 
[V:2] .C2.[C,,2C,2]z2 | 
[V:1] {/C//} .=A z .A z .A z | 
[V:2] {/F,,//C,//}F,2z2z2 | 
[V:1] {/E//}c2>B2G2 | 
[V:2] {/C,//G,//}B,2z2z2 | 
[V:1] GF2<[C2F2][EG] & A,2x4 | 
[V:2] F,,2A,,2C,2 | 
[V:1] [E4G4][F2A2] | 
[V:2] F,2F,,2z2 | 
[V:1] B2>{/c/B/A/} B2cd | 
[V:2] D,2[F,2B,2]z2 | 
[V:1] dc=Bc_BG | 
[V:2] E,2[G,2C2]z2 | 
[V:1] ^GABAcB | 
[V:2] F,2[D,2F,2][B,,2G,2] | 
[V:1] A=GFEDC | 
[V:2] [C,2E,2]z2z2 | 
[V:1] [^G^g][Aa][Gg][Aa][Gg][Aa] | 
[V:2] (3F,A,C (3F,A,C (3F,A,C | 
[V:1] [=B=b][cc'][Bb][cc']_b=g | 
[V:2] (3E,G,C (3E,G,C (3E,B,C | 
[V:1] x2gf ag & gfc2e2 | 
[V:2] [F,2A,2]A,2C2 | 
[V:1] g2>^g2a2 & e4f2 | 
[V:2] F2C2F,2[K:clef=treble] | 
[V:1] b2>{/c'/b/a/} b2c'd' | 
[V:2] DFBFDF | 
[V:1] d'c'=bc'_bg | 
[V:2] EGcGEG | 
[V:1] ^gac'b=ge | 
[V:2] F2[B,2=G2][C2B2] | 
[V:1] fc z c z c | 
[V:2] [F2A2]A2F2 | 
[V:1] [Bc][Bc] z [Bc] z [Bc] | 
[V:2] G2E2C2[K:clef=bass] | 
[V:1] [_Ac][Ac] z [Ac] z [Ac] | 
[V:2] F,2_A,2F,2 | 
[V:1] [Bc][Bc] z [Bc] z [Bc] | 
[V:2] G,2E,2C,2 | 
[V:1] [_Ac][Ac] z [Ac] z [Ac] | 
[V:2] [F,,2F,2]_A,2C2 | 
[V:1] [_A_d][Ad] z [Ad] z [Ad] | 
[V:2] [B,,2B,2]_D2F2 | 
[V:1] [G_d][Gd] z [Gd] z [Gd] | 
[V:2] [_E,,2_E,2]G,2B,2 | 
[V:1] [Gc][Gc] z [Gc] z [Gc] | 
[V:2] [_A,,2_A,2]C2_E2 | 
[V:1] [Fc][Fc] z [Fc] [FB][FB] | 
[V:2] [_D,,2_D,2]_D2[G,,2G,2] | 
[V:1] z [FB] [=EB][EB] z [EB] | 
[V:2] G2[C,,2C,2]C2 | 
[V:1] z [F_A] z [FA] z [FA] | 
[V:2] _D2C2=B,2 | 
[V:1] [EG][_Ac][GB][FA][EG][FA] | 
[V:2] C2z2z =B, | 
[V:1] [EG][_Ac][GB][FA][EG][FA] | 
[V:2] C2z2z =B, | 
[V:1] [EG][F_A][EG][FA][EG][FA] | 
[V:2] C=B,CB,CB, | 
[V:1] [EG][^D^F][EG][^F=A][GB][Ac] | 
[V:2] C2z2z2 | 
[V:1] [B2d2][B2d2][B2d2] & x2=F2F2 | 
[V:2] _B,2B,2B,2 | 
[V:1] [B4d4][A2c2] & F6 | 
[V:2] B,4F,2 | 
[V:1] c<B[G2B2][G2B2] & [E2G2]E2E2 | 
[V:2] C,2C,2C,2 | 
[V:1] [E4G4B4][F2A2] | 
[V:2] C,4D,2 | 
[V:1] [Ac][GB][F2A2][E2G2] | 
[V:2] B,,2C,2C,2 | 
[V:1] [FA] .f.g.a.b.c' | 
[V:2] F,2z2z2[K:clef=treble] | 
[V:1] d'2d'2d'2 | 
[V:2] [F2B2][F2B2][F2B2] | 
[V:1] d'3e'/d'/c'2 | 
[V:2] B4A2 & F6 | 
[V:1] c'<bb2b2 & e2e2e2 | 
[V:2] G2G2G2 & C2C2C2 | 
[V:1] b4a2 & e4f2 | 
[V:2] G4F2[K:clef=bass] & C4D2 | 
[V:1] [ac'][gb][f2a2][e2g2] | 
[V:2] B,2C2B,2 | 
[V:1] [ac'][ac'] z [gb] z [fa] | 
[V:2] [A,,A,] z ^C z D z | 
[V:1] z [Bg] z [Af] z [Ge] | 
[V:2] B, z =C z B, z | 
[V:1] z/ a/c'/a/ z/ g/b/g/ z/ f/a/f/ | 
[V:2] [A,,A,] z [^C,^C] z [D,D] z | 
[V:1] z/ B/g/B/ z/ A/f/A/ z/ G/e/G/ | 
[V:2] [B,,B,] z [=C,=C] z [C,,C,] z | 
[V:1] [A2c2f2]z2!trill!A3/G//F// | 
[V:2] F,,/A,,/C,/F,/ F,,/A,,/C,/F,/ F,,/A,,/C,/F,/ | 
[V:1] c4!trill!e3/d//c// | 
[V:2] F,,/A,,/C,/F,/ F,,/A,,/C,/F,/ F,,/B,,/C,/F,/ | 
[V:1] f4!trill!a3/g//f// | 
[V:2] F,,/A,,/C,/F,/ F,,/A,,/C,/F,/ F,,/A,,/C,/F,/ | 
[V:1] .c'2.c'2!trill!e'3/d'//c'// | 
[V:2] F,,/A,,/C,/F,/ F,,/A,,/C,/F,/ F,,/B,,/C,/F,/ | 
[V:1] f'2a3^c | 
[V:2] [F,,2A,,2C,2F,2][A,,3A,3][^C,^C] | 
[V:1] d2f3A | 
[V:2] [D,2D2][F,3F3]A, | 
[V:1] !trill!B3/A//G//=c2[G2c2e2] | 
[V:2] !trill!B,3/A,//G,//=C2[C,2C2] | 
[V:1] [A2c2f2]F2z2 :|]  
[V:2] [F,2F2][F,,2F,2]z2 :|]  


